svg/golf.svg

<svg xmlns="http://www.w3.org/2000/svg" viewBox="0 0 24 24"><path d="M19.5 18a1.5 1.5 0 0 1 1.5 1.5 1.5 1.5 0 0 1-1.5 1.5 1.5 1.5 0 0 1-1.5-1.5 1.5 1.5 0 0 1 1.5-1.5M17 5.92 11 9v9.03c2.84.16 5 .97 5 1.97 0 1.1-2.69 2-6 2s-6-.9-6-2c0-.74 1.21-1.38 3-1.73V20h2V2z"/></svg>

<?xml version="1.0" encoding="UTF-8"?><!DOCTYPE svg PUBLIC "-//W3C//DTD SVG 1.1//EN" "http://www.w3.org/Graphics/SVG/1.1/DTD/svg11.dtd"><svg xmlns="http://www.w3.org/2000/svg" xmlns:xlink="http://www.w3.org/1999/xlink" version="1.1" id="mdi-golf" width="24" height="24" viewBox="0 0 24 24"><path d="M19.5,18A1.5,1.5 0 0,1 21,19.5A1.5,1.5 0 0,1 19.5,21A1.5,1.5 0 0,1 18,19.5A1.5,1.5 0 0,1 19.5,18M17,5.92L11,9V18.03C13.84,18.19 16,19 16,20C16,21.1 13.31,22 10,22C6.69,22 4,21.1 4,20C4,19.26 5.21,18.62 7,18.27V20H9V2L17,5.92Z" /></svg>
